X:76
T:Crown Point
C:Roy Watrous
M:2/4
Q:1/4=100
L:1/16
K:D
%%MIDI channel 1
%%MIDI program 72
%%MIDI transpose 8
%%MIDI grace 1/8
%%MIDI ratio 3 1
(3(ABc)|d2>d2 f2a2|gfed c2(3(ABc)|d2de f2f2|edcB A2(3(ABc)|d2f2 TA2e2|g2TA2 f2a2|gfed cABc|d2f2d2::
z2|c2cd e2A2|e2ef g2A2|fa2f d2f2|edcB A2(3(ABc)|d2f2 TA2e2|g2TA2 f2a2|gfed cABc|d2f2d2:|

